src/assets/selectIcons/pozione_8.svg

<svg xmlns="http://www.w3.org/2000/svg" viewBox="0 0 512 512"><path d="M0 0h512v512H0z"/><path fill="#fff" d="M345.98 19.586c-1.09-.01-2.16.003-3.21.04-14.725.51-25.865 5.643-32.153 14.51-7.185 10.132-7.67 24.62-.822 41.247 6.846 16.626 21.065 34.485 40.953 48.572 19.888 14.088 41.458 21.58 59.426 22.527 17.968.95 31.494-4.31 38.68-14.443 7.185-10.134 7.668-24.622.822-41.25-6.847-16.626-21.065-34.484-40.953-48.57-19.89-14.09-41.46-21.58-59.428-22.53-1.123-.058-2.23-.093-3.316-.104zM298.22 94.19l-18.843 26.57c-.426.6-.822 1.21-1.2 1.824-9.132-2.42-18.316-3.953-27.396-4.45-1.846-.103-3.69-.16-5.532-.167-1.84-.008-3.677.032-5.506.12-25.606 1.223-49.86 11.905-66.183 34.923L42.173 338.283l3.36 5.295 73.284 115.496 139.416 32.256 131.534-185.48c18.69-26.36 18.7-57.108 7.337-84.4-4.775-11.47-11.45-22.476-19.53-32.764l17.872-25.206c-6.33-1.17-12.76-2.914-19.21-5.216l-14.682 20.705c-3.764 5.305-9.15 7.028-17.74 6.096-8.592-.93-19.306-5.348-28.565-11.812-9.26-6.464-17.03-14.963-20.744-22.662-3.714-7.7-3.917-13.336.115-19.022l14.816-20.888c-4.288-5.357-8.05-10.877-11.217-16.49zm-53.087 42.453c1.526.015 3.067.065 4.623.15 7.63.42 15.552 1.76 23.556 3.896.07 6.236 1.67 12.445 4.36 18.02 5.657 11.73 15.496 21.918 26.88 29.866 11.385 7.95 24.345 13.67 37.25 15.07 7.192.78 14.702-.048 21.356-2.92 7.02 8.99 12.742 18.416 16.694 27.907 9.56 22.965 9.542 45.436-5.33 66.406l-12.932 18.237-94.926-49.017 23.775-33.528-15.245-10.81-29.174 41.14-147.077 29.477 89.86-126.72c12.97-18.29 30.85-26.31 51.795-27.115 1.496-.057 3.008-.077 4.535-.062zM93.418 298.33l92.094 48.057-61.254 86.377-59.582-93.9 28.742-40.534zm262.506 22.938l-105.686 149.03-111.408-25.775 67.33-94.945 149.764-28.31z"/></svg>

<?xml version="1.0" encoding="UTF-8" standalone="no"?>
<!DOCTYPE svg PUBLIC "-//W3C//DTD SVG 1.1//EN" "http://www.w3.org/Graphics/SVG/1.1/DTD/svg11.dtd">
<svg width="100%" height="100%" viewBox="0 0 512 512" version="1.1" xmlns="http://www.w3.org/2000/svg" xmlns:xlink="http://www.w3.org/1999/xlink" xml:space="preserve" xmlns:serif="http://www.serif.com/" style="fill-rule:evenodd;clip-rule:evenodd;stroke-linejoin:round;stroke-miterlimit:2;">
    <rect x="0" y="0" width="512" height="512" style="fill-rule:nonzero;"/>
    <path d="M298.22,94.19L279.377,120.76C278.951,121.36 278.555,121.97 278.177,122.584C269.045,120.164 259.861,118.631 250.781,118.134C248.935,118.031 247.091,117.974 245.249,117.967C243.409,117.959 241.572,117.999 239.743,118.087C214.137,119.31 189.883,129.992 173.56,153.01L42.173,338.283L45.533,343.578L118.817,459.074L258.233,491.33L389.767,305.85C408.457,279.49 408.467,248.742 397.104,221.45C392.329,209.98 385.654,198.974 377.574,188.686L395.446,163.48C389.116,162.31 382.686,160.566 376.236,158.264L361.554,178.969C357.79,184.274 352.404,185.997 343.814,185.065C335.222,184.135 324.508,179.717 315.249,173.253C305.989,166.789 298.219,158.29 294.505,150.591C290.791,142.891 290.588,137.255 294.62,131.569L309.436,110.681C305.148,105.324 301.386,99.804 298.219,94.191L298.22,94.19ZM245.133,136.643C246.659,136.658 248.2,136.708 249.756,136.793C257.386,137.213 265.308,138.553 273.312,140.689C273.382,146.925 274.982,153.134 277.672,158.709C283.329,170.439 293.168,180.627 304.552,188.575C315.937,196.525 328.897,202.245 341.802,203.645C348.994,204.425 356.504,203.597 363.158,200.725C370.178,209.715 375.9,219.141 379.852,228.632C389.412,251.597 389.394,274.068 374.522,295.038L361.59,313.275L266.664,264.258L290.439,230.73L275.194,219.92L246.02,261.06L98.943,290.537L188.803,163.817C201.773,145.527 219.653,137.507 240.598,136.702C242.094,136.645 243.606,136.625 245.133,136.64L245.133,136.643ZM93.418,298.33L185.512,346.387L124.258,432.764L64.676,338.864L93.418,298.33ZM355.924,321.268L250.238,470.298L138.83,444.523L206.16,349.578L355.924,321.268Z" style="fill:rgb(0,255,231);fill-rule:nonzero;"/>
    <path d="M345.98,19.585C347.066,19.596 348.172,19.631 349.295,19.689C367.263,20.639 388.833,28.129 408.723,42.219C428.611,56.305 442.829,74.163 449.676,90.789C456.522,107.417 456.039,121.905 448.854,132.039C441.668,142.172 428.142,147.432 410.174,146.482C392.206,145.535 370.636,138.043 350.748,123.955C330.86,109.868 316.641,92.009 309.795,75.383C302.947,58.756 303.432,44.268 310.617,34.136C316.905,25.269 328.045,20.136 342.77,19.626C343.82,19.589 344.89,19.575 345.98,19.585Z" style="fill:rgb(170,118,118);"/>
</svg>
